svg/u1f357.svg

<svg viewBox="0 0 128 128" xmlns="http://www.w3.org/2000/svg">
  <path d="M27.1,7.58c-0.32-0.4-4.78-3.59-4.78-3.59s-6.46,1.44-7.18,6.78s3.91,11.32,3.91,11.32l-4.69-3.04 c0,0-7.59-0.55-8.46,5.75s5.82,9.33,7.57,10.12s5.58,2.31,10.84,5.26s11.16,8.53,11.16,8.21s9.49,4.78,5.5-3.67S27.1,7.58,27.1,7.58 z" fill="#DFBCA6"/>
  <path d="M46.71,41.31c-0.32,0.16-11.16,2.47-11.16,2.47s-3.75-4.54-11.4-9.25s-12.25-5.93-13.53-9.6 c-0.5-1.45-0.58-4.03,1.17-5.23c3.48-2.37,7.68,1.81,9.97-0.32c2.31-2.15-5.42-12.92,0.56-15.39c3.98-1.65,7.25,1.91,9.25,5.58 c1.45,2.66,1.42,6.62,3.99,12.2c3.19,6.94,10.76,14.27,10.76,14.27S46.87,41.23,46.71,41.31z" fill="#FFEBCA"/>
  <path d="M44.03,43.39l-8.48,0.39c0,0-2.19-1.32-3.17,0.24S33,47.07,33,47.07s6,6.49,7.63,9.68 c1.63,3.18,3.18,7.92,4.81,15.14c1.63,7.21,2.03,15.92,4.62,22.32c2.59,6.4,2.79,8.12,6.33,13.39c1.46,2.17,9.23,10.2,12.13,11.99 c5.13,3.16,12.37,4.67,17.82,4.81c5.33,0.13,15.02-1,20.74-4.81c5.72-3.81-8.86-36.65-11.44-40.74 c-2.59-4.09-39.51-26.98-40.33-27.66C54.48,50.5,44.03,43.39,44.03,43.39z" fill="#AC5832"/>
  <path d="M35.55,43.78c0,0,0.24-4.51,3.28-7.19c3.55-3.14,5.7-2.4,5.7-2.4s6.93,6.75,10.32,8.9 c3.39,2.15,7.69,5.57,14.82,7.6c7.13,2.04,28.21,5.09,39.94,15.84c8.67,7.95,13.24,17.31,12.45,30.44 c-0.79,13.13-13.35,23.99-21.27,24.67c-7.92,0.68-13.05-1.17-16.22-2.06c-4.03-1.13-15.36-9.1-18.64-13.06s-6.09-10.22-8.92-20.86 s-6.68-22.52-7.92-24.78S35.55,43.78,35.55,43.78z" fill="#D27856"/>
  <path d="M59.6,62.85c-2.13,1.91,1.12,4.26,2.72,7.55c1.17,2.41,2.84,8.66,6.3,6.65 c3.46-2-0.91-9.01-2.83-11.1S61.33,61.3,59.6,62.85z" fill="#AC5832"/>
  <path d="M63.15,87.25c-1.54,1.08-1,4.73,0,7.19c0.58,1.43,2.64,4.73,4.55,3.55s0.55-5.37-0.09-6.74 C66.98,89.89,64.97,85.98,63.15,87.25z" fill="#AC5832"/>
  <path d="M74.26,101.18c-0.87,1.66,0.82,3,4.28,5.37c2.59,1.77,6.1,4.19,7.56,1.91s-2.63-5.28-5.19-6.56 C77.81,100.36,75.17,99.45,74.26,101.18z" fill="#AC5832"/>
</svg>

<svg viewBox="0 0 128 128" xmlns="http://www.w3.org/2000/svg">
  <defs/>
  <path d="M27.1,7.58 C26.78,7.18 22.32,3.99 22.32,3.99 C22.32,3.99 15.86,5.43 15.14,10.77 C14.42,16.11 19.05,22.09 19.05,22.09 L14.36,19.05 C14.36,19.05 6.77,18.5 5.9,24.8 C5.03,31.1 11.72,34.13 13.47,34.92 C15.22,35.71 19.05,37.23 24.31,40.18 C29.57,43.13 35.47,48.71 35.47,48.39 C35.47,48.07 44.96,53.17 40.97,44.72 C36.98,36.27 27.1,7.58 27.1,7.58 Z" fill="#DFBCA6"/>
  <path d="M46.71,41.31 C46.39,41.47 35.55,43.78 35.55,43.78 C35.55,43.78 31.8,39.24 24.15,34.53 C16.5,29.82 11.9,28.6 10.62,24.93 C10.12,23.48 10.04,20.9 11.79,19.7 C15.27,17.33 19.47,21.51 21.76,19.38 C24.07,17.23 16.34,6.46 22.32,3.99 C26.3,2.34 29.57,5.9 31.57,9.57 C33.02,12.23 32.99,16.19 35.56,21.77 C38.75,28.71 46.32,36.04 46.32,36.04 C46.32,36.04 46.87,41.23 46.71,41.31 Z" fill="#FFEBCA"/>
  <path d="M44.03,43.39 L35.55,43.78 C35.55,43.78 33.36,42.46 32.38,44.02 C31.4,45.58 33,47.07 33,47.07 C33,47.07 39,53.56 40.63,56.75 C42.26,59.93 43.81,64.67 45.44,71.89 C47.07,79.1 47.47,87.81 50.06,94.21 C52.65,100.61 52.85,102.33 56.39,107.6 C57.85,109.77 65.62,117.8 68.52,119.59 C73.65,122.75 80.89,124.26 86.34,124.4 C91.67,124.53 101.36,123.4 107.08,119.59 C112.8,115.78 98.22,82.94 95.64,78.85 C93.05,74.76 56.13,51.87 55.31,51.19 C54.48,50.5 44.03,43.39 44.03,43.39 Z" fill="#AC5832"/>
  <path d="M35.55,43.78 C35.55,43.78 35.79,39.27 38.83,36.59 C42.38,33.45 44.53,34.19 44.53,34.19 C44.53,34.19 51.46,40.94 54.85,43.09 C58.24,45.24 62.54,48.66 69.67,50.69 C76.8,52.73 97.88,55.78 109.61,66.53 C118.28,74.48 122.85,83.84 122.06,96.97 C121.27,110.1 108.71,120.96 100.79,121.64 C92.87,122.32 87.74,120.47 84.57,119.58 C80.54,118.45 69.21,110.48 65.93,106.52 C62.65,102.56 59.84,96.3 57.01,85.66 C54.18,75.02 50.33,63.14 49.09,60.88 C47.85,58.62 35.55,43.78 35.55,43.78 Z" fill="#D27856"/>
  <path d="M59.6,62.85 C57.47,64.76 60.72,67.11 62.32,70.4 C63.49,72.81 65.16,79.06 68.62,77.05 C72.08,75.05 67.71,68.04 65.79,65.95 C63.87,63.86 61.33,61.3 59.6,62.85 Z" fill="#AC5832"/>
  <path d="M63.15,87.25 C61.61,88.33 62.15,91.98 63.15,94.44 C63.73,95.87 65.79,99.17 67.7,97.99 C69.61,96.81 68.25,92.62 67.61,91.25 C66.98,89.89 64.97,85.98 63.15,87.25 Z" fill="#AC5832"/>
  <path d="M74.26,101.18 C73.39,102.84 75.08,104.18 78.54,106.55 C81.13,108.32 84.64,110.74 86.1,108.46 C87.56,106.18 83.47,103.18 80.91,101.9 C77.81,100.36 75.17,99.45 74.26,101.18 Z" fill="#AC5832"/>
</svg>
